build/documents/FolderDeleteOutline.svg

<svg xmlns="http://www.w3.org/2000/svg" fill="none" viewBox="0 0 24 24" focusable="false"><path d="M0 0H24V24H0z"/><path fill="#74767B" fill-rule="evenodd" d="M18.7021 13.2991L18.7021 12.7659L14.0596 12.7659C13.0669 12.7659 12.1074 12.4102 11.3545 11.7632L9.83936 10.4612C9.59473 10.2507 9.28223 10.135 8.95947 10.135L5.30811 10.135L5.30811 18.5535L13.375 18.6035C13.7339 18.6035 14.0249 18.8945 14.0249 19.2534C14.0249 19.6125 13.7339 19.9036 13.375 19.9036L5.3584 19.9036C4.61279 19.9036 4.0083 19.2991 4.0083 18.5535L4.0083 5.37061C4.0083 4.625 4.61279 4.02051 5.3584 4.02051L9.24609 4.02051C10.1455 4.02051 11.0137 4.35278 11.6836 4.95361L12.8115 5.96582C13.3345 6.43506 14.0122 6.69434 14.7148 6.69434L18.6519 6.69434C19.3975 6.69434 20.002 7.29883 20.002 8.04443L20.002 13.2991C20.002 13.658 19.7109 13.949 19.3521 13.949C18.9932 13.949 18.7021 13.658 18.7021 13.2991ZM5.30811 5.37061L9.24609 5.32056C9.8252 5.32056 10.3843 5.53442 10.8154 5.92139L11.9434 6.93335C12.7051 7.6167 13.6919 7.99438 14.7148 7.99438L18.6519 7.99438L18.7021 11.4658L14.0596 11.4658C13.3779 11.4658 12.7188 11.2214 12.2017 10.7773L10.6865 9.4751C10.2061 9.06201 9.59326 8.83496 8.95947 8.83496L5.30811 8.83496L5.30811 5.37061ZM20.7979 16.1045C21.0562 15.8555 21.064 15.4438 20.8149 15.1853C20.5654 14.9268 20.1543 14.9192 19.8955 15.1682L17.9688 17.0251L16.0415 15.1682C15.7827 14.9192 15.3716 14.9268 15.1221 15.1853C14.873 15.4438 14.8809 15.8555 15.1392 16.1045L17.0317 17.9277L15.1392 19.7512C14.8809 20.0002 14.873 20.4119 15.1221 20.6704C15.3716 20.9287 15.7827 20.9365 16.0415 20.6873L17.9688 18.8306L19.8955 20.6873C20.1543 20.9365 20.5654 20.9287 20.8149 20.6704C21.064 20.4119 21.0562 20.0002 20.7979 19.7512L18.9053 17.9277L20.7979 16.1045Z"/></svg>

<svg xmlns="http://www.w3.org/2000/svg" fill="none" viewBox="0 0 24 24" focusable="false"><path fill="#74767B" fill-rule="evenodd" d="M18.7 13.29v-.53h-4.65c-.99 0-1.95-.35-2.7-1l-1.52-1.3c-.24-.21-.55-.33-.88-.33H5.3v8.42l8.07.05c.36 0 .65.29.65.65s-.29.65-.65.65H5.35c-.74 0-1.35-.61-1.35-1.35V5.37c0-.75.61-1.35 1.35-1.35h3.89c.9 0 1.77.33 2.44.93l1.13 1.01c.52.47 1.2.73 1.9.73h3.94c.74 0 1.35.6 1.35 1.35v5.25c0 .36-.29.65-.65.65s-.65-.29-.65-.65M5.3 5.37l3.94-.05c.58 0 1.14.21 1.57.6l1.13 1.01c.76.68 1.75 1.06 2.77 1.06h3.94l.05 3.47h-4.65c-.68 0-1.34-.24-1.85-.69l-1.52-1.3a2.66 2.66 0 0 0-1.73-.64H5.3zM20.79 16.1c.26-.25.27-.66.02-.92a.65.65 0 0 0-.92-.02l-1.93 1.86-1.92-1.86a.65.65 0 0 0-.92.02c-.25.26-.24.67.01.92l1.9 1.82-1.9 1.83c-.25.25-.26.66-.01.92.25.25.66.26.92.01l1.92-1.85 1.93 1.85c.26.25.67.24.92-.01.25-.26.24-.67-.02-.92l-1.89-1.83z"/></svg>
